X: 1
T: Hineh Ma Tov
O: Israel
S: Terry Traub 2019-6-18
N: Shortened the doubled bar 12 to make it fit the dance. [jc]
L: 1/4
M: 4/4
K: Dm
|:\
"Dm"A D D D | "Bb"F F/G/-"C"G A | "Dm"A D D D | "Am"C C/D/-"Dm"D2 :| \
|:\
"Dm"A/A/- A3- | A2 A/G/F/G/- | "C"G4- | G4 :|
"Gm"B2 A2 | "C"G2 F G | "Dm"A D D E/F/- | "Bb"HF4 | \
"Bb"F/F/-F2 F | "C"F G C E | "Dm"D4- | D4 |]
